src/cmd/lc_footnotedialog.svg

<svg viewBox="0 0 22 22" xmlns="http://www.w3.org/2000/svg"><path d="m4 3v5h1v-4h12v8h1v-9h-1-12zm2 3v1h10v-1zm0 2v1h6v-1zm0 5v1h7v-1zm0 5v1h5v-1z" fill="#232629"/><path d="m16 13-1 2h1v4h1v-6zm-10 2v1h7v-1z" fill="#762572"/><path d="m4 9c-.55228 0-1 .44772-1 1 0 .55229.44772 1 1 1s1-.44771 1-1c0-.55228-.44772-1-1-1zm0 4c-.55228 0-1 .44772-1 1 0 .55229.44772 1 1 1s1-.44771 1-1c0-.55228-.44772-1-1-1zm0 4c-.55228 0-1 .44772-1 1 0 .55229.44772 1 1 1s1-.44771 1-1c0-.55228-.44772-1-1-1z" fill="#e95420"/></svg>

<?xml version="1.0" encoding="UTF-8" standalone="no"?>
<svg
   xmlns:dc="http://purl.org/dc/elements/1.1/"
   xmlns:cc="http://creativecommons.org/ns#"
   xmlns:rdf="http://www.w3.org/1999/02/22-rdf-syntax-ns#"
   xmlns:svg="http://www.w3.org/2000/svg"
   xmlns="http://www.w3.org/2000/svg"
   xmlns:sodipodi="http://sodipodi.sourceforge.net/DTD/sodipodi-0.dtd"
   xmlns:inkscape="http://www.inkscape.org/namespaces/inkscape"
   viewBox="0 0 22 22"
   version="1.1"
   id="svg8"
   sodipodi:docname="lc_footnotedialog.svg"
   inkscape:version="0.92.4 (5da689c313, 2019-01-14)">
  <metadata
     id="metadata14">
    <rdf:RDF>
      <cc:Work
         rdf:about="">
        <dc:format>image/svg+xml</dc:format>
        <dc:type
           rdf:resource="http://purl.org/dc/dcmitype/StillImage" />
      </cc:Work>
    </rdf:RDF>
  </metadata>
  <defs
     id="defs12" />
  <sodipodi:namedview
     pagecolor="#ffffff"
     bordercolor="#666666"
     borderopacity="1"
     objecttolerance="10"
     gridtolerance="10"
     guidetolerance="10"
     inkscape:pageopacity="0"
     inkscape:pageshadow="2"
     inkscape:window-width="1920"
     inkscape:window-height="1011"
     id="namedview10"
     showgrid="true"
     inkscape:zoom="30.341309"
     inkscape:cx="6.3464118"
     inkscape:cy="10.892462"
     inkscape:window-x="0"
     inkscape:window-y="32"
     inkscape:window-maximized="1"
     inkscape:current-layer="svg8">
    <inkscape:grid
       type="xygrid"
       id="grid821" />
  </sodipodi:namedview>
  <path
     d="M 5,8 V 4 h 12 v 8 h 1 V 3 H 17 5 4 v 5 11 h 2 5 V 18 H 6 5 Z M 6,6 V 7 H 16 V 6 Z m 0,2 v 1 h 6 V 8 Z m 0,5 v 1 h 7 v -1 z"
     id="path2"
     inkscape:connector-curvature="0"
     style="fill:#232629"
     sodipodi:nodetypes="cccccccccccccccccccccccccccccccc" />
  <path
     d="m16 13-1 2h1v4h1v-6zm-10 2v1h7v-1z"
     fill="#762572"
     id="path4" />
</svg>
